X:1
T:Geneva 42
T:Geneva 42
T:Genevan Psalter
T:Philip R. McDavid
T:Frame of Light Designs
T:Frame of Light Designs
C:Genevan Psalter
Z:Philip R. McDavid
Z:Frame of Light Designs
%%score 1 2 { ( 3 4 ) | ( 5 6 ) }
L:1/8
M:6/4
K:F
V:1 treble transpose=-2 nm="B♭ Clarinet" snm="B♭ Cl."
V:2 bass nm="Euphonium" snm="Euph."
V:3 treble nm="Pipe Organ" snm="Org."
V:4 treble 
V:5 bass 
V:6 bass 
V:1
[K:G]|: D4 F2 G4 F2 | E2 D2 C4 B,4 | E4 F2 G4 G2 | G4 F4 !fermata!G4 | D4 F2 G4 F2 | E2 D2 C4 B,4 | %6
 E4 F2 G4 G2 | G4 F4 !fermata!G4 | G4 G2 G4 C2 | D2 D2 !fermata!G4 G4 | G2 G4 G2 G2 G2 | %11
 !fermata!F4 G4 A2 A2- | A2 G2 E2 F2 G4 | E4 E4 G2 E2- | E2 D2 D2 B,2 D4 | !fermata!D8 :| %16
 D4 D2 D4 D2 | G2 D2 E4 D4 | E4 C2 (B,2 D2) G2 | D4 A,4 !fermata!B,4 | D4 F2 G4 F2 | %21
 (B,2 D2) E4 D4 | E4 F2 D4 C2 | B,4 A4 !fermata!G4 | (B,2 D2) D2 G4 G2 | %25
 G2 F2 !fermata!D4 (B,2 D2) | D2 C2 (C2 G2) G2 G2 | !fermata!F4 G4 A4- | A2 B,4 F2 G2 F2 | %29
 (E2 C2) E4 G4- | G2 D2 D2 B,2 (D2 F2) | !fermata!G8 |] %32
V:2
|: A,4 C2 C4 C2 | A,2 A,2 F,4 F,4 | A,4 C2 C4 D2 | C4 C4 !fermata!A,4 | A,4 C2 C4 C2 | %5
 A,2 A,2 F,4 F,4 | A,4 C2 C4 D2 | C4 C4 !fermata!A,4 | C4 C2 A,4 D2 | C2 C2 !fermata!C4 A,4 | %10
 A,2 B,4 C2 D2 C2 | !fermata!C4 _E4 D2 D2- | D2 A,2 A,2 C2 C4 | B,4 F,4 F,2 F,2- | %14
 F,2 F,2 E,2 F,2 G,4 | !fermata!A,8 :| C4 C2 C4 C2 | F,2 C2 D4 C4 | D4 B,2 (A,2 C2) F,2 | %19
 C4 G,4 !fermata!A,4 | C4 E,2 F,4 E,2 | (A,2 C2) D4 C4 | D4 E2 C4 B,2 | A,4 G,4 !fermata!F,4 | %24
 (A,2 C2) C2 F,4 F,2 | F,2 E,2 !fermata!C4 (A,2 C2) | C2 B,2 (B,2 F,2) F,2 F,2 | %27
 !fermata!E,4 F,4 G,4- | G,2 A,4 E2 F2 E2 | (D2 B,2) D4 F4- | F2 C2 C2 A,2 (C2 E2) | !fermata!F8 |] %32
V:3
|: F4 G2 A4 G2 | F2 E2 D4 C4 | F4 G2 A4 B2 | A4 G4 F4 | F4 G2 A4 G2 | F2 E2 D4 C4 | F4 G2 A4 B2 | %7
 A4 G4 F4 | A4 A2 c4 B2 | A2 G2 !fermata!A4 c4 | c2 d4 c2 B2 A2 | !fermata!G4 A4 c2 B2- | %12
 B2 A2 F2 G2 A4 | F4 A4 A2 B2- | B2 A2 G2 F2 E4 | !fermata!F8 :| F4 G2 A4 G2 | F2 E2 D4 C4 | %18
 F4 G2 A4 B2 | A4 G4 F4 | F4 G2 A4 G2 | F2 E2 D4 C4 | F4 G2 A4 B2 | A4 G4 F4 | A4 A2 c4 B2 | %25
 A2 G2 !fermata!A4 c4 | c2 d4 c2 B2 A2 | !fermata!G4 A4 c2 B2- | B2 A2 F2 G2 A4 | F4 A4 A2 B2- | %30
 B2 A2 G2 F2 E4 | !fermata!F8 |] %32
V:4
|: C4 E2 F4 E2 | D2 C2 B,4 A,4 | D4 E2 F4 F2 | F4 E4 !fermata!F4 | C4 E2 F4 E2 | D2 C2 B,4 A,4 | %6
 D4 E2 F4 F2 | F4 E4 !fermata!F4 | F4 F2 F4 F2 | F2 E2 F4 F4 | F2 F4 F2 F2 F2 | E4 F4 G2 G2- | %12
 G2 F2 D2 E2 F4 | D4 D4 F2 D2- | D2 C2 C2 A,2 C4 | C8 :| C4 E2 F4 E2 | D2 C2 B,4 A,4 | %18
 D4 E2 F4 F2 | F4 E4 !fermata!F4 | C4 E2 F4 E2 | D2 C2 B,4 A,4 | D4 E2 F4 F2 | F4 E4 !fermata!F4 | %24
 F4 F2 F4 F2 | F2 E2 F4 F4 | F2 F4 F2 F2 F2 | E4 F4 G2 G2- | G2 F2 D2 E2 F4 | D4 D4 F2 D2- | %30
 D2 C2 C2 A,2 C4 | C8 |] %32
V:5
|: A,4 C2 C4 C2 | A,2 A,2 F,4 F,4 | A,4 C2 C4 [B,,D]2 | C4 C4 [F,A,]4 | A,4 C2 C4 C2 | %5
 A,2 A,2 F,4 F,4 | A,4 C2 C4 [B,,D]2 | C4 C4 [F,A,]4 | C4 C2 A,4 [B,,D]2 | C2 [C,C]2 [F,C]4 A,4 | %10
 A,2 B,4 [F,A,]2 [D,B,]2 [F,C]2 | C4 _E4 D2 D2- | D2 A,2 A,2 C2 C4 | %13
 B,4 [F,F,]4 [D,F,]2 [B,,F,]2- | F,2 F,2 E,2 F,2 G,4 | A,8 :| A,4 C2 C4 C2 | A,2 A,2 F,4 F,4 | %18
 A,4 C2 C4 [B,,D]2 | C4 C4 [F,A,]4 | A,4 C2 C4 C2 | A,2 A,2 F,4 F,4 | A,4 C2 C4 [B,,D]2 | %23
 C4 C4 [F,A,]4 | C4 C2 A,4 [B,,D]2 | C2 [C,C]2 [F,C]4 A,4 | A,2 B,4 [F,A,]2 [D,B,]2 [F,C]2 | %27
 C4 _E4 D2 D2- | D2 A,2 A,2 C2 C4 | B,4 [F,F,]4 [D,F,]2 [B,,F,]2- | F,2 F,2 E,2 F,2 G,4 | A,8 |] %32
V:6
|: F,4 C,2 F,4 C,2 | D,2 A,,2 B,,4 F,,4 | D,4 C,2 F,4 x2 | F,4 C,4 x4 | F,4 C,2 F,4 C,2 | %5
 D,2 A,,2 B,,4 F,,4 | D,4 C,2 F,4 x2 | F,4 C,4 x4 | F,4 F,2 F,4 x2 | F,2 x6 F,4 | F,2 B,,4 x6 | %11
 F,4 F,4 G,2 D,2- | D,2 D,2 D,2 C,2 F,4 | B,,4 x8 | B,,2 F,,2 C,2 D,2 C,4 | F,,8 :| %16
 F,4 C,2 F,4 C,2 | D,2 A,,2 B,,4 F,,4 | D,4 C,2 F,4 x2 | F,4 C,4 x4 | F,4 C,2 F,4 C,2 | %21
 D,2 A,,2 B,,4 F,,4 | D,4 C,2 F,4 x2 | F,4 C,4 x4 | F,4 F,2 F,4 x2 | F,2 x6 F,4 | F,2 B,,4 x6 | %27
 F,4 F,4 G,2 D,2- | D,2 D,2 D,2 C,2 F,4 | B,,4 x8 | B,,2 F,,2 C,2 D,2 C,4 | F,,8 |] %32

